X:1726
T:Bonnets So Blue
% Nottingham Music Database
P:AAB
S:Kevin Briggs, via EF
M:4/4
K:C
M:6/8
P:A
G|"C"cdc efg|"G7"GAG GAB|"C"ceg gec|"G7"d2e gfd|
"C"cdc efg|"Dm"GAG "G7"G2g|"Am"gfe "G7"dcB|"C"c3 c2:|
P:B
d/2c/2|"G"Bcd "D7/a"ded|"G/b"G3 "D7/a"G2Fc|"G"Bcd "G7/f"def|"C/e"g3 "G7/d"g2f|\
"C"e2F dc2F"b"B|
"Am"A2B c2d|"Am"efe "E7"dcB|"Am"A3 F"G7"G3|"C"cdc efg|"C"cdc "G7"c2FG|\
"C"ceg gec|
"Dm"d3 "G7"F2d|"C"cdc efg|"G"GAG G2g|"Am"gfe "G7"dcBF|"C"c3 Fc2:|
